Instagram.svg

<?xml version="1.0" encoding="UTF-8" standalone="no"?>
<svg
   xmlns:dc="http://purl.org/dc/elements/1.1/"
   xmlns:cc="http://creativecommons.org/ns#"
   xmlns:rdf="http://www.w3.org/1999/02/22-rdf-syntax-ns#"
   xmlns:svg="http://www.w3.org/2000/svg"
   xmlns="http://www.w3.org/2000/svg"
   xmlns:xlink="http://www.w3.org/1999/xlink"
   xmlns:sodipodi="http://sodipodi.sourceforge.net/DTD/sodipodi-0.dtd"
   xmlns:inkscape="http://www.inkscape.org/namespaces/inkscape"
   viewBox="0 0 100 100"
   id="svg2"
   version="1.1"
   inkscape:version="0.91 r"
   sodipodi:docname="Instagram.svg">
  <metadata
     id="metadata27">
    <rdf:RDF>
      <cc:Work
         rdf:about="">
        <dc:format>image/svg+xml</dc:format>
        <dc:type
           rdf:resource="http://purl.org/dc/dcmitype/StillImage" />
      </cc:Work>
    </rdf:RDF>
  </metadata>
  <sodipodi:namedview
     pagecolor="#ffffff"
     bordercolor="#666666"
     borderopacity="1"
     objecttolerance="10"
     gridtolerance="10"
     guidetolerance="10"
     inkscape:pageopacity="0"
     inkscape:pageshadow="2"
     inkscape:window-width="1920"
     inkscape:window-height="1025"
     id="namedview25"
     showgrid="false"
     inkscape:zoom="2.36"
     inkscape:cx="50"
     inkscape:cy="50"
     inkscape:window-x="1278"
     inkscape:window-y="887"
     inkscape:window-maximized="1"
     inkscape:current-layer="svg2" />
  <defs
     id="defs4">
    <linearGradient
       y2="61.751"
       x2="48.727"
       y1="85.34"
       x1="84.49"
       gradientUnits="userSpaceOnUse"
       id="0"
       gradientTransform="translate(0,4.9989706e-4)">
      <stop
         stop-opacity=".374"
         id="stop7" />
      <stop
         offset="1"
         stop-opacity="0"
         id="stop9" />
    </linearGradient>
    <clipPath
       clipPathUnits="userSpaceOnUse"
       id="clipPath18">
      <path
         d="m 0,0 0,4273 4282,0 L 4282,0 0,0 Z"
         id="path20"
         inkscape:connector-curvature="0" />
    </clipPath>
    <clipPath
       clipPathUnits="userSpaceOnUse"
       id="clipPath24">
      <path
         d="M 4282.08,936.129 C 4282.08,419.121 3864.97,0 3350.43,0 L 931.656,0 C 417.117,0 0,419.121 0,936.129 L 0,3337.11 c 0,517 417.117,936.12 931.656,936.12 l 2418.774,0 c 514.54,0 931.65,-419.12 931.65,-936.12 l 0,-2400.981 z"
         id="path26"
         inkscape:connector-curvature="0" />
    </clipPath>
    <radialGradient
       fx="0"
       fy="0"
       cx="0"
       cy="0"
       r="1"
       gradientUnits="userSpaceOnUse"
       gradientTransform="matrix(1400.92,4083.18,4083.18,-1400.92,1244.54,10.5798)"
       spreadMethod="pad"
       id="radialGradient28">
      <stop
         style="stop-opacity:1;stop-color:#fbd459"
         offset="0"
         id="stop30" />
      <stop
         style="stop-opacity:1;stop-color:#f29b3e"
         offset="0.246305"
         id="stop32" />
      <stop
         style="stop-opacity:1;stop-color:#f14534"
         offset="0.37931"
         id="stop34" />
      <stop
         style="stop-opacity:1;stop-color:#c21889"
         offset="0.699507"
         id="stop36" />
      <stop
         style="stop-opacity:1;stop-color:#5a63b8"
         offset="0.985222"
         id="stop38" />
      <stop
         style="stop-opacity:1;stop-color:#5a63b8"
         offset="1"
         id="stop40" />
    </radialGradient>
    <radialGradient
       inkscape:collect="always"
       xlink:href="#radialGradient28"
       id="radialGradient4213"
       gradientUnits="userSpaceOnUse"
       gradientTransform="matrix(32.716483,-95.35683,95.35683,32.716483,29.064459,99.647826)"
       spreadMethod="pad"
       cx="0"
       cy="0"
       fx="0"
       fy="0"
       r="1" />
  </defs>
  <path
     style="fill:url(#radialGradient4213);fill-opacity:1;fill-rule:nonzero;stroke:none"
     d="M 12.136719 0 C 5.435633 0 -2.3684758e-15 5.4352423 0 12.138672 L 0 21.03125 L 0 78.970703 L 0 87.861328 C 0 94.564367 5.4348518 100 12.136719 100 L 87.863281 100 C 94.564368 100 100 94.564758 100 87.861328 L 100 12.138672 C 100 5.4356329 94.565149 0 87.863281 0 L 12.136719 0 z "
     id="path4205" />
  <g
     id="g4231"
     transform="matrix(1.0343487,0,0,1.0343487,176.92366,-69.981796)">
    <g
       transform="matrix(0.02335357,0,0,-0.02335357,-172.70975,165.79131)"
       id="g12">
      <g
         id="g14">
        <g
           clip-path="url(#clipPath18)"
           id="g16">
          <g
             clip-path="url(#clipPath24)"
             id="g22" />
        </g>
      </g>
      <path
         inkscape:connector-curvature="0"
         id="path44"
         style="fill:none;stroke:#ffffff;stroke-width:350.65100098;stroke-linecap:butt;stroke-linejoin:miter;stroke-miterlimit:10;stroke-dasharray:none;stroke-opacity:1"
         d="m 3578.6,1447.28 c 0,-439.45 -356.25,-795.702 -795.7,-795.702 l -1283.71,0 c -439.46,0 -795.706,356.252 -795.706,795.702 l 0,1369.79 c 0,439.45 356.246,795.7 795.706,795.7 l 1283.71,0 c 439.45,0 795.7,-356.25 795.7,-795.7 l 0,-1369.79 z" />
      <path
         inkscape:connector-curvature="0"
         id="path46"
         style="fill:none;stroke:#ffffff;stroke-width:428.57299805;stroke-linecap:butt;stroke-linejoin:miter;stroke-miterlimit:10;stroke-dasharray:none;stroke-opacity:1"
         d="m 2846.91,2136.62 c -8.52,-389.75 -316.03,-705.87 -705.87,-705.87 -389.84,0 -705.86,316.03 -705.86,705.87 0,389.84 316.19,717.23 705.86,705.86 474.67,-13.84 714.35,-317.41 705.87,-705.86 z" />
      <path
         inkscape:connector-curvature="0"
         id="path48"
         style="fill:#ffffff;fill-opacity:1;fill-rule:nonzero;stroke:none"
         d="m 3208.45,3009.44 c 0,-109.34 -88.64,-197.99 -197.99,-197.99 -109.34,0 -197.99,88.65 -197.99,197.99 0,109.35 88.65,197.99 197.99,197.99 109.35,0 197.99,-88.64 197.99,-197.99" />
    </g>
  </g>
  <path
     d="m 12.14,-0.0025001 c -6.702,0 -12.138,5.435 -12.138,12.1380001 l 0,75.73 c 0,6.702 5.435,12.138 12.138,12.137 l 75.72,0 c 6.702,0 12.137,-5.435 12.138,-12.137 l 0,-75.73 c 0,-6.7020001 -5.435,-12.1380001 -12.138,-12.1380001 z"
     id="path23"
     style="fill:url(#0)"
     inkscape:connector-curvature="0" />
</svg>

<svg xmlns="http://www.w3.org/2000/svg" xmlns:xlink="http://www.w3.org/1999/xlink" viewBox="0 0 100 100"><defs><clipPath><path d="m4282.08 936.13c0-517.01-417.11-936.13-931.65-936.13h-2418.77c-514.54 0-931.66 419.12-931.66 936.13v2400.98c0 517 417.12 936.12 931.66 936.12h2418.77c514.54 0 931.65-419.12 931.65-936.12v-2400.98"/></clipPath><clipPath><path d="m0 0v4273h4282v-4273h-4282"/></clipPath><linearGradient y2="61.751" x2="48.727" y1="85.34" x1="84.49" gradientUnits="userSpaceOnUse" id="0"><stop stop-opacity=".374"/><stop offset="1" stop-opacity="0"/></linearGradient><radialGradient cx="0" cy="0" r="1" gradientUnits="userSpaceOnUse" gradientTransform="matrix(1400.92 4083.18 4083.18-1400.92 1244.54 10.58)" id="1"><stop stop-color="#fbd459"/><stop offset=".246" stop-color="#f29b3e"/><stop offset=".379" stop-color="#f14534"/><stop offset=".7" stop-color="#c21889"/><stop offset=".985" stop-color="#5a63b8"/><stop offset="1" stop-color="#5a63b8"/></radialGradient><radialGradient xlink:href="#1" id="2" gradientUnits="userSpaceOnUse" gradientTransform="matrix(32.71648-95.3568 95.3568 32.71648 29.06 99.65)" cx="0" cy="0" r="1"/></defs><path d="m12.137 0c-6.701 0-12.137 5.435-12.137 12.139v8.893 57.939 8.891c0 6.703 5.435 12.139 12.137 12.139h75.73c6.701 0 12.137-5.435 12.137-12.139v-75.72c0-6.703-5.435-12.139-12.137-12.139h-75.73" fill="url(#2)"/><g transform="matrix(.02416 0 0-.02416-1.718 101.5)"><g fill="none" stroke="#fff" stroke-miterlimit="10"><path d="m3578.6 1447.28c0-439.45-356.25-795.7-795.7-795.7h-1283.71c-439.46 0-795.71 356.25-795.71 795.7v1369.79c0 439.45 356.25 795.7 795.71 795.7h1283.71c439.45 0 795.7-356.25 795.7-795.7v-1369.79z" stroke-width="350.65"/><path d="m2846.91 2136.62c-8.52-389.75-316.03-705.87-705.87-705.87-389.84 0-705.86 316.03-705.86 705.87 0 389.84 316.19 717.23 705.86 705.86 474.67-13.84 714.35-317.41 705.87-705.86z" stroke-width="428.57"/></g><path d="m3208.45 3009.44c0-109.34-88.64-197.99-197.99-197.99-109.34 0-197.99 88.65-197.99 197.99 0 109.35 88.65 197.99 197.99 197.99 109.35 0 197.99-88.64 197.99-197.99" fill="#fff"/></g><path d="m12.14-.003c-6.702 0-12.138 5.435-12.138 12.138v75.73c0 6.702 5.435 12.138 12.138 12.137h75.72c6.702 0 12.137-5.435 12.138-12.137v-75.73c0-6.702-5.435-12.138-12.138-12.138z" fill="url(#0)"/></svg>
